X: 1
T: O'Keefe's
M: 12/8
L: 1/8
R: slide
K: Gmaj
A|B2 B cBc d3 d2 e|dBG dBG A3 AGA|
B2 B cBc d3 d2 g|fed cBA G3 G2:|
|:d|g2 d B2 g f2 d c3|ded c2 A ded B2 d|
g2 d B2 g f2 d c2 B|ABc def g3 g2:|
